!!!COM: Giovanni Maria Nanino
!!!OPR: Regole di contrappunto di Gio. M. Nanino e del suo fratello minore.
!!!OTL: [Didactic example]
!!!YOR: MS ca. 1580-ca.1610.
!!!YOR: Bologna, Civico Museo Bibliografico Musicale.
!!!ONB: Reprinted (without acknowledgement) by Rocco Rodio "Regole di musica"
!!!ONB: [3rd edition].  Naples: Gio. Giocomo Carlino & Costantino Vitale, 1619.
!!!ONB: Encoded from Rodio, p. 31.
!!!ONB: Canon at the seventh above after a semibreve with the cantus firmus above.
**kern	**kern	**kern
*guida	*CF	*conseq
*M4/4	*M4/4	*M4/4
*k[]	*k[]	*k[]
=1	=1	=1
4AA	1A	1r
4BB	.	.
4C	.	.
4D	.	.
=2	=2	=2
4E	1E	4G
4F	.	4A
4G	.	4B
4A	.	4c
=3	=3	=3
1B	1D	4d
.	.	4e
.	.	4f
.	.	4g
=4	=4	=4
2A	1F	1a
2D	.	.
=5	=5	=5
4E	1E	2g
4F	.	.
4G	.	2c
4A	.	.
=6	=6	=6
1B	1D	4d
.	.	4e
.	.	4f
.	.	4g
=7	=7	=7
1A	1F	1a
=8	=8	=8
1E	1G	1g
=9	=9	=9
2F	1A	1d
2D	.	.
=10	=10	=10
1A	1c	2e
.	.	2c
=11	=11	=11
2G	1B	1g
2GG	.	.
=12	=12	=12
2AA	1A	2f
2D	.	2F
=13	=13	=13
2C	1c	2G
2AA	.	2c
=14	=14	=14
1r	1d	2B
.	.	2G
=15	=15	=15
1GG	1G	1r
=16	=16	=16
4FF	1A	1F
4GG	.	.
4AA	.	.
4BB	.	.
=17	=17	=17
4C	1G	4E
4D	.	4F
2E	.	4G
.	.	4A
=18	=18	=18
1BB	1d	4B
.	.	4c
.	.	2d
=19	=19	=19
2C	1c	1A
2AA	.	.
=20	=20	=20
1r	1d	2B
.	.	2G
=21	=21	=21
1GG	1G	1r
=22	=22	=22
1AA	1F	1F
=23	=23	=23
1GG	1B-	1G
=24	=24	=24
2r	1A	1F
2AA	.	.
=25	=25	=25
1BB	1D	2r
.	.	2G
=26	=26	=26
1AA	1E	1A
=27	=27	=27
1E	1G	1G
=28	=28	=28
2.D	1A	1d
8C	.	.
8BB	.	.
=29	=29	=29
4AA	1c	2.c
4BB	.	.
4C	.	.
4D	.	8B
.	.	8A
=30	=30	=30
4E	1B	4G
4F	.	4A
[2G	.	4B
.	.	4c
=31	=31	=31
2G]	1A	4d
.	.	4e
2F	.	[2f
=32	=32	=32
1G	1G	2f]
.	.	2e
=33	=33	=33
2r	1F	1f
[2D	.	.
=34	=34	=34
2D]	1E	2r
2C	.	[2c
=35	=35	=35
1D	1D	2c]
.	.	2B
=36	=36	=36
1AA	1E	1c
=37	=37	=37
2BB	[1D	1G
2GG	.	.
=38	=38	=38
1D	1D]	1A
==	==	==
*-	*-	*-
!!!CDT: 1545///-1607/3/11
!!!OCY: Italia
!!!ODT: 1586
!!!AFR: cantus firmus canon
!!!AST: polyphony
!!!AMT: simple quadruple
!!!AIN: vox
!!!YEP: David Huron and Denis Collins
!!!YEN: Canada
!!!EEV: 1.0
!!!RDT: 1995 July 23
!!!YED: 1995 August 31
